!!!SOCIAL_FUNCTION:	chief songs
!!!PDT:	1918

Specific Region: Dakotas, Minnesota, Montana, Nebraska
!!!REG: Dakotas and Montana
!!!LING_GROUP: Siouan
!!!LANG: Tone
!!!OTL@ENG: Song in Honor of Two Bears
!!!ONM: No. 188
**kern
*Imale
*clefF4
*k[f#c#]
*M2/4
*MM112
16f#
8f#
16e
=1
16f#
16e
8d
8.d
16B
=2
8r
8d
8.f#
16e
=3
16f#
16e
8d
8.d
16B
=4
16d
8.B
8.B
16B
=5
16d
8.B
4B
=6
8A
8A
8A
8F#
=7||
*M3/4
*MM152
2B
8.B
16B
=8
2d
8.B
16d
=9
2B
8A
8A
=10||
*M2/4
4A
8F#
8F#
=11||
*M3/4
[2F#
8F#]
8F#
=12||
*M2/4
2F#
=13
2F#
=14
*MM112
16B
8.d
8.d
16d
=15||
*M3/4
16f#
8.e
16f#
8.d
8d
8d
=16
8.d
16B
16d
8.B
8.B
16B
=17||
*M2/4
16d
8.B
8.B
16A
=18
16A
8.A
(8.A
16F#)
=19||
*M3/4
*MM152
2B
8.B
16B
=20
2d
8.B
16d
=21
2B
8A
8A
=22||
*M2/4
4A
8F#
8F#
=23
2F#
=24
2F#
==
*-
!!!CNT: Native American -- Sioux
!!!MRD: 1911/07//-1914///
!!!OCL: Frances Densmore
!!!YOR1: Teton Sioux Music, Bulletin 61,
!!!YOR2: Bureau of American Ethnology, Smithsonian Institution
!!!PPR: Government Printing Office
!!!PPP: Washington, D.C.
!!!PDT: 1918///
!!!ENC: Craig Stuart Sapp
!!!END: 2002/03/25/
!!!EEV: 2002/03/31/
!!!AGN: Chief Song
!!!MPN@@SIO: Shiya'ka
!!!MPN@ENG: Teal Duck
!!!TXO: Teton Sioux
!!!MLC: Standing Rock Reservation, South Dakota, United States of America
!!!ARL: 45.9/-100.7#
!!!catalog: Catalogue No. 454
!!!PPG: 453
!!!EFL: 193/245
!!!VTS: 521089638
